src/assets/outline/Building4.svg

<svg width="24" height="24" viewBox="0 0 24 24"  xmlns="http://www.w3.org/2000/svg">
<path d="M23 22.75H1C0.59 22.75 0.25 22.41 0.25 22C0.25 21.59 0.59 21.25 1 21.25H23C23.41 21.25 23.75 21.59 23.75 22C23.75 22.41 23.41 22.75 23 22.75Z" />
<path d="M19.7803 22.7598C19.3703 22.7598 19.0303 22.4198 19.0303 22.0098V17.5498C19.0303 17.1398 19.3703 16.7998 19.7803 16.7998C20.1903 16.7998 20.5303 17.1398 20.5303 17.5498V22.0098C20.5303 22.4198 20.2003 22.7598 19.7803 22.7598Z" />
<path d="M19.8001 18.2999C18.1701 18.2999 16.8501 16.9799 16.8501 15.3499V13.0799C16.8501 11.4499 18.1701 10.1299 19.8001 10.1299C21.4301 10.1299 22.7501 11.4499 22.7501 13.0799V15.3499C22.7501 16.9799 21.4301 18.2999 19.8001 18.2999ZM19.8001 11.6399C19.0001 11.6399 18.3501 12.2899 18.3501 13.0899V15.3599C18.3501 16.1599 19.0001 16.8099 19.8001 16.8099C20.6001 16.8099 21.2501 16.1599 21.2501 15.3599V13.0899C21.2501 12.2899 20.6001 11.6399 19.8001 11.6399Z" />
<path d="M14.2998 22.7498C13.8898 22.7498 13.5498 22.4098 13.5498 21.9998V6.02979C13.5498 4.43979 12.8798 3.75977 11.3198 3.75977H5.08984C3.51984 3.75977 2.83984 4.43979 2.83984 6.02979V21.9998C2.83984 22.4098 2.49984 22.7498 2.08984 22.7498C1.67984 22.7498 1.33984 22.4098 1.33984 21.9998V6.02979C1.33984 3.59979 2.66984 2.25977 5.08984 2.25977H11.3198C13.7298 2.25977 15.0498 3.59979 15.0498 6.02979V21.9998C15.0498 22.4098 14.7098 22.7498 14.2998 22.7498Z" />
<path d="M10.7498 9H5.7998C5.3898 9 5.0498 8.66 5.0498 8.25C5.0498 7.84 5.3898 7.5 5.7998 7.5H10.7498C11.1598 7.5 11.4998 7.84 11.4998 8.25C11.4998 8.66 11.1598 9 10.7498 9Z" />
<path d="M10.7498 12.75H5.7998C5.3898 12.75 5.0498 12.41 5.0498 12C5.0498 11.59 5.3898 11.25 5.7998 11.25H10.7498C11.1598 11.25 11.4998 11.59 11.4998 12C11.4998 12.41 11.1598 12.75 10.7498 12.75Z" />
<path d="M8.25 22.75C7.84 22.75 7.5 22.41 7.5 22V18.25C7.5 17.84 7.84 17.5 8.25 17.5C8.66 17.5 9 17.84 9 18.25V22C9 22.41 8.66 22.75 8.25 22.75Z" />
</svg>

<?xml version="1.0" encoding="UTF-8"?>
<svg width="24" height="24" viewBox="0 0 24 24" xmlns="http://www.w3.org/2000/svg">
 <path d="m23 22.75h-22c-0.41 0-0.75-0.34-0.75-0.75s0.34-0.75 0.75-0.75h22c0.41 0 0.75 0.34 0.75 0.75s-0.34 0.75-0.75 0.75z"/>
 <path d="m19.78 22.76c-0.41 0-0.75-0.34-0.75-0.75v-4.46c0-0.41 0.34-0.75 0.75-0.75s0.75 0.34 0.75 0.75v4.46c0 0.41-0.33 0.75-0.75 0.75z"/>
 <path d="m19.8 18.3c-1.63 0-2.95-1.32-2.95-2.95v-2.27c0-1.63 1.32-2.95 2.95-2.95s2.95 1.32 2.95 2.95v2.27c0 1.63-1.32 2.95-2.95 2.95zm0-6.66c-0.8 0-1.45 0.65-1.45 1.45v2.27c0 0.8 0.65 1.45 1.45 1.45s1.45-0.65 1.45-1.45v-2.27c0-0.8-0.65-1.45-1.45-1.45z"/>
 <path d="m14.3 22.75c-0.41 0-0.75-0.34-0.75-0.75v-15.97c0-1.59-0.67-2.27-2.23-2.27h-6.23c-1.57 0-2.25 0.68002-2.25 2.27v15.97c0 0.41-0.34 0.75-0.75 0.75s-0.75-0.34-0.75-0.75v-15.97c0-2.43 1.33-3.77 3.75-3.77h6.23c2.41 0 3.73 1.34 3.73 3.77v15.97c0 0.41-0.34 0.75-0.75 0.75z"/>
 <path d="m10.75 9h-4.95c-0.41 0-0.75-0.34-0.75-0.75s0.34-0.75 0.75-0.75h4.95c0.41 0 0.75 0.34 0.75 0.75s-0.34 0.75-0.75 0.75z"/>
 <path d="m10.75 12.75h-4.95c-0.41 0-0.75-0.34-0.75-0.75s0.34-0.75 0.75-0.75h4.95c0.41 0 0.75 0.34 0.75 0.75s-0.34 0.75-0.75 0.75z"/>
 <path d="m8.25 22.75c-0.41 0-0.75-0.34-0.75-0.75v-3.75c0-0.41 0.34-0.75 0.75-0.75s0.75 0.34 0.75 0.75v3.75c0 0.41-0.34 0.75-0.75 0.75z"/>
</svg>
